src/resources/assets/more.svg

<svg xmlns="http://www.w3.org/2000/svg" width="16" height="16"><path d="M 5 8 C 5 8.550781 4.550781 9 4 9 C 3.449219 9 3 8.550781 3 8 C 3 7.449219 3.449219 7 4 7 C 4.550781 7 5 7.449219 5 8 Z M 9 8 C 9 8.550781 8.550781 9 8 9 C 7.449219 9 7 8.550781 7 8 C 7 7.449219 7.449219 7 8 7 C 8.550781 7 9 7.449219 9 8 Z M 12 9 C 12.550781 9 13 8.550781 13 8 C 13 7.449219 12.550781 7 12 7 C 11.449219 7 11 7.449219 11 8 C 11 8.550781 11.449219 9 12 9 Z M 12 9" fill="#ddd"/></svg>

<svg xmlns="http://www.w3.org/2000/svg" width="16" height="16"><path d="M5 8c0 .55-.45 1-1 1s-1-.45-1-1 .45-1 1-1 1 .45 1 1zm4 0c0 .55-.45 1-1 1s-1-.45-1-1 .45-1 1-1 1 .45 1 1zm3 1c.55 0 1-.45 1-1s-.45-1-1-1-1 .45-1 1 .45 1 1 1zm0 0" fill="#ddd"/></svg>
